bestshop/images/icons/icon-res-guide-video-03_mo.svg

<svg xmlns="http://www.w3.org/2000/svg" width="120" height="120" viewBox="0 0 120 120">
  <g id="step_03" transform="translate(-407 -343)">
    <rect id="사각형_831" data-name="사각형 831" width="120" height="120" transform="translate(407 343)" fill="none"/>
    <g id="그룹_434" data-name="그룹 434" transform="translate(-742.999 7.432)">
      <g id="사각형_355" data-name="사각형 355" transform="translate(1167.049 363.569)" fill="#fff" stroke="#000" stroke-width="3">
        <rect width="86" height="61" rx="2" stroke="none"/>
        <rect x="1.5" y="1.5" width="83" height="58" rx="0.5" fill="none"/>
      </g>
      <circle id="타원_98" data-name="타원 98" cx="2" cy="2" r="2" transform="translate(1173.049 368.569)"/>
      <path id="패스_207" data-name="패스 207" d="M2.152,0A2.152,2.152,0,1,1,0,2.152,2.152,2.152,0,0,1,2.152,0Z" transform="translate(1179.915 368.305)"/>
      <path id="패스_215" data-name="패스 215" d="M2.152,0A2.152,2.152,0,1,1,0,2.152,2.152,2.152,0,0,1,2.152,0Z" transform="translate(1187.09 368.305)"/>
      <g id="패스_210" data-name="패스 210" transform="translate(1167 374.687)" fill="#fff">
        <path d="M 83.22808837890625 50.95138931274414 L 2.869938135147095 50.95138931274414 C 2.114550590515137 50.95138931274414 1.500000596046448 50.24020004272461 1.500000596046448 49.36602783203125 L 1.500000596046448 3.181242942810059 C 1.521670699119568 2.907783985137939 1.526437401771545 2.444891452789307 1.527250647544861 1.531051874160767 C 1.527259588241577 1.521022796630859 1.527268648147583 1.510923504829407 1.52727746963501 1.500989556312561 L 84.59833526611328 1.54725456237793 C 84.59818267822266 1.995946645736694 84.5980224609375 2.520473003387451 84.5980224609375 3.085501909255981 L 84.5980224609375 49.36602783203125 C 84.5980224609375 50.24020004272461 83.98347473144531 50.95138931274414 83.22808837890625 50.95138931274414 Z" stroke="none"/>
        <path d="M 3.011764526367188 3.001819610595703 C 3.008575439453125 3.079822540283203 3.00469970703125 3.152500152587891 2.999992370605469 3.220996856689453 L 2.999992370605469 49.36602020263672 C 2.999992370605469 49.4019775390625 3.004951477050781 49.43012619018555 3.011245727539062 49.45138168334961 L 83.08676910400391 49.45138168334961 C 83.09306335449219 49.43012619018555 83.0980224609375 49.40197372436523 83.0980224609375 49.36602020263672 L 83.0980224609375 3.085502624511719 C 83.0980224609375 3.072444915771484 83.0980224609375 3.059429168701172 83.0980224609375 3.046417236328125 L 3.011764526367188 3.001819610595703 M 0.00075531005859375 -0.000263214111328125 C 0.001007080078125 -0.000263214111328125 0.00125885009765625 -0.00012969970703125 0.0015106201171875 0.000141143798828125 L -7.62939453125e-06 0.000141143798828125 C 0.00025177001953125 -0.00012969970703125 0.0005035400390625 -0.00026702880859375 0.00075531005859375 -0.000263214111328125 Z M -7.62939453125e-06 0.000141143798828125 L 86.0980224609375 0.04808807373046875 C 86.09941864013672 0.04731369018554688 86.0980224609375 1.381500244140625 86.0980224609375 3.085502624511719 L 86.0980224609375 49.36602020263672 C 86.0980224609375 51.07000732421875 84.8131103515625 52.45138168334961 83.22808837890625 52.45138168334961 L 2.869926452636719 52.45138168334961 C 1.284912109375 52.45138168334961 -7.62939453125e-06 51.07000732421875 -7.62939453125e-06 49.36602020263672 L -7.62939453125e-06 3.085502624511719 C 0.033203125 3.085502624511719 0.03887939453125 0.040740966796875 0.0015106201171875 0.000141143798828125 Z" stroke="none" fill="#000"/>
      </g>
      <g id="사각형_356" data-name="사각형 356" transform="translate(1180.049 404.569)" fill="#fff" stroke="#000" stroke-width="3">
        <rect width="24" height="15" rx="2" stroke="none"/>
        <rect x="1.5" y="1.5" width="21" height="12" rx="0.5" fill="none"/>
      </g>
      <rect id="사각형_357" data-name="사각형 357" width="31" height="2" rx="1" transform="translate(1209.049 405.569)"/>
      <rect id="사각형_358" data-name="사각형 358" width="31" height="2" rx="1" transform="translate(1209.049 411.569)"/>
      <rect id="사각형_359" data-name="사각형 359" width="31" height="2" rx="1" transform="translate(1209.049 417.569)"/>
      <g id="사각형_354" data-name="사각형 354" transform="translate(1177.049 382.569)" fill="#fff" stroke="#000" stroke-width="3">
        <rect width="66" height="17" rx="2" stroke="none"/>
        <rect x="1.5" y="1.5" width="63" height="14" rx="0.5" fill="none"/>
      </g>
      <g id="패스_209" data-name="패스 209" transform="translate(1198.696 387.552)" fill="#fff" stroke-linecap="round" stroke-linejoin="round">
        <path d="M 13.58119106292725 22.94662284851074 L 13.19411087036133 22.02458190917969 L 11.39652156829834 17.74260139465332 L 9.895030975341797 19.19405174255371 L 8.200010299682617 20.83258247375488 L 8.200010299682617 18.47506332397461 L 8.200010299682617 7.29998254776001 L 8.200010299682617 4.885772228240967 L 9.907120704650879 6.592872142791748 L 18.08888053894043 14.77463245391846 L 19.79598045349121 16.48174285888672 L 17.38177108764648 16.48174285888672 L 15.20067596435547 16.48174285888672 L 16.8782901763916 20.47797203063965 L 17.26537132263184 21.40003204345703 L 16.34331130981445 21.78710174560547 L 14.50323104858398 22.5595531463623 L 13.58119106292725 22.94662284851074 Z" stroke="none"/>
        <path d="M 14.11616039276123 21.63750267028809 L 15.9562406539917 20.86505317687988 L 13.69633102416992 15.4817419052124 L 17.38177108764648 15.4817419052124 L 9.200010299682617 7.29998254776001 L 9.200010299682617 18.47506332397461 L 11.75266075134277 16.00748252868652 L 14.11616039276123 21.63750267028809 M 14.11701583862305 23.63801956176758 C 13.33559894561768 23.63801956176758 12.59348964691162 23.17730331420898 12.27207088470459 22.41166305541992 L 11.04038906097412 19.47771263122559 L 10.59006023406982 19.91303253173828 C 10.01289081573486 20.47097015380859 9.158042907714844 20.62973976135254 8.419020652770996 20.3162727355957 C 7.679990768432617 20.00279235839844 7.200010776519775 19.27782249450684 7.200010776519775 18.47506332397461 L 7.200010776519775 7.29998254776001 C 7.200010776519775 6.491062164306641 7.687290668487549 5.761782169342041 8.434640884399414 5.452222347259521 C 9.181990623474121 5.142662525177002 10.0422306060791 5.313772678375244 10.61422061920166 5.885772228240967 L 18.79598045349121 14.06753253936768 C 19.36798095703125 14.63952255249023 19.53909111022949 15.49976253509521 19.22953033447266 16.24711227416992 C 18.91997146606445 16.99446296691895 18.1906909942627 17.48174285888672 17.38177108764648 17.48174285888672 L 16.70501708984375 17.48174285888672 L 17.80034065246582 20.09090232849121 C 18.00565147399902 20.57999229431152 18.00827026367188 21.13060188293457 17.80762100219727 21.62162208557129 C 17.60696029663086 22.11264228820801 17.2194709777832 22.50384330749512 16.73038101196289 22.70915222167969 L 14.89030075073242 23.48160171508789 C 14.63748836517334 23.58773040771484 14.37503433227539 23.63801956176758 14.11701583862305 23.63801956176758 Z" stroke="none" fill="#000"/>
      </g>
      <line id="선_28" data-name="선 28" y2="3.587" transform="translate(1204.902 387.695) rotate(-22)" fill="none" stroke="#000" stroke-linecap="round" stroke-width="2"/>
      <line id="선_29" data-name="선 29" y2="3.587" transform="translate(1211.173 387.664) rotate(23)" fill="none" stroke="#000" stroke-linecap="round" stroke-width="2"/>
      <line id="선_30" data-name="선 30" y2="3.587" transform="translate(1200.367 392.028) rotate(-67)" fill="none" stroke="#000" stroke-linecap="round" stroke-width="2"/>
    </g>
  </g>
</svg>

<svg xmlns="http://www.w3.org/2000/svg" width="120" height="120" viewBox="0 0 120 120">
    <path data-name="사각형 831" style="fill:none" d="M0 0h120v120H0z"/>
    <g data-name="그룹 434" transform="translate(-1150 -335.568)">
        <g data-name="사각형 355" transform="translate(1167.049 363.569)" style="stroke-width:3px;stroke:#000;fill:#fff">
            <rect width="86" height="61" rx="2" style="stroke:none"/>
            <rect x="1.5" y="1.5" width="83" height="58" rx=".5" style="fill:none"/>
        </g>
        <circle data-name="타원 98" cx="2" cy="2" r="2" transform="translate(1173.049 368.569)" style="fill:#ff8d8d"/>
        <path data-name="패스 207" d="M2.152 0A2.152 2.152 0 1 1 0 2.152 2.152 2.152 0 0 1 2.152 0z" transform="translate(1179.915 368.305)" style="fill:#ffe457"/>
        <path data-name="패스 215" d="M2.152 0A2.152 2.152 0 1 1 0 2.152 2.152 2.152 0 0 1 2.152 0z" transform="translate(1187.09 368.305)" style="fill:#9ee37a"/>
        <g data-name="패스 210" style="fill:#ededed">
            <path d="M83.228 50.951H2.87c-.755 0-1.37-.71-1.37-1.585V3.181c.022-.273.026-.736.027-1.65v-.03l83.071.046v47.819c0 .874-.615 1.585-1.37 1.585z" style="stroke:none" transform="translate(1167 374.687)"/>
            <path d="M3.012 3.002c-.003.078-.007.15-.012.219v46.145a.3.3 0 0 0 .011.085h80.076a.3.3 0 0 0 .011-.085V3.046L3.012 3.002M0 0H0zM0 0l86.098.048v49.318c0 1.704-1.285 3.085-2.87 3.085H2.87C1.285 52.451 0 51.07 0 49.366V3.086C.033 3.086.039.04.002 0z" style="fill:#000;stroke:none" transform="translate(1167 374.687)"/>
        </g>
        <rect data-name="사각형 356" width="24" height="15" rx="2" transform="translate(1180.049 404.569)" style="fill:#c3c3c3"/>
        <rect data-name="사각형 357" width="31" height="2" rx="1" transform="translate(1209.049 405.569)" style="fill:#c3c3c3"/>
        <rect data-name="사각형 358" width="31" height="2" rx="1" transform="translate(1209.049 411.569)" style="fill:#c3c3c3"/>
        <rect data-name="사각형 359" width="31" height="2" rx="1" transform="translate(1209.049 417.569)" style="fill:#c3c3c3"/>
        <g data-name="사각형 354" transform="translate(1177.049 382.569)" style="stroke-width:3px;stroke:#000;fill:#fff">
            <rect width="66" height="17" rx="2" style="stroke:none"/>
            <rect x="1.5" y="1.5" width="63" height="14" rx=".5" style="fill:none"/>
        </g>
        <g data-name="패스 209" style="stroke-linejoin:round;stroke-linecap:round;fill:#fff">
            <path d="m13.581 22.947-.387-.922-1.797-4.282-1.502 1.451L8.2 20.833V4.886l1.707 1.707 8.182 8.182 1.707 1.707H15.201l1.677 3.996.387.922-.922.387-1.84.773-.922.387z" style="stroke:none" transform="translate(1198.696 387.552)"/>
            <path d="m14.116 21.638 1.84-.773-2.26-5.383h3.686L9.2 7.3v11.175l2.553-2.468 2.363 5.63m.001 2.001a2 2 0 0 1-1.845-1.226l-1.232-2.934-.45.435a2 2 0 0 1-3.39-1.438V7.3a2 2 0 0 1 3.414-1.414l8.182 8.182a2 2 0 0 1-1.414 3.414h-.677L17.8 20.09a2 2 0 0 1-1.07 2.618l-1.84.773a1.994 1.994 0 0 1-.773.156z" style="fill:#000;stroke:none" transform="translate(1198.696 387.552)"/>
        </g>
        <path data-name="선 28" transform="rotate(-22 1599.71 -2905.494)" style="stroke-width:2px;stroke-linecap:round;stroke:#000;fill:none" d="M0 0v3.587"/>
        <path data-name="선 29" transform="rotate(23 -347.128 3170.385)" style="stroke-width:2px;stroke-linecap:round;stroke:#000;fill:none" d="M0 0v3.587"/>
        <path data-name="선 30" transform="rotate(-67 896.328 -710.764)" style="stroke-width:2px;stroke-linecap:round;stroke:#000;fill:none" d="M0 0v3.587"/>
    </g>
</svg>
